img/union-3.svg

<svg fill="none" height="25" viewBox="0 0 25 25" width="25" xmlns="http://www.w3.org/2000/svg"><path d="m24.2891 23.7681h.3682v.3683h-.3682zm-11.5552-22.811025c-6.17731-.000001-11.18689 5.022955-11.18689 11.221425h-.736526c.000001-6.60317 5.337266-11.957948 11.923416-11.957948zm11.1869 11.221425c0-6.19847-5.0096-11.221425-11.1869-11.221425v-.736523c6.5862 0 11.9234 5.354778 11.9234 11.957948zm0 11.5896v-11.5896h.7365v11.5896zm-11.1869-.3682h11.5552v.7365h-11.5552zm-11.18689-11.2214c0 6.1984 5.00957 11.2214 11.18689 11.2214v.7365c-6.58615 0-11.923416-5.3548-11.923416-11.9579z" fill="#fff500"/></svg>

<svg width="25" height="25" viewBox="0 0 25 25" fill="none" xmlns="http://www.w3.org/2000/svg">
<path d="M24.2891 23.7681L24.6573 23.7681L24.6573 24.1364L24.2891 24.1364L24.2891 23.7681ZM12.7339 0.957075C6.55659 0.957074 1.54701 5.98003 1.54701 12.1785L0.810484 12.1785C0.810485 5.57533 6.14775 0.220552 12.7339 0.220552L12.7339 0.957075ZM23.9208 12.1785C23.9208 5.98003 18.9112 0.957075 12.7339 0.957075L12.7339 0.220552C19.3201 0.220552 24.6573 5.57533 24.6573 12.1785L23.9208 12.1785ZM23.9208 23.7681L23.9208 12.1785L24.6573 12.1785L24.6573 23.7681L23.9208 23.7681ZM12.7339 23.3999L24.2891 23.3999L24.2891 24.1364L12.7339 24.1364L12.7339 23.3999ZM1.54701 12.1785C1.54701 18.3769 6.55658 23.3999 12.7339 23.3999L12.7339 24.1364C6.14775 24.1364 0.810484 18.7816 0.810484 12.1785L1.54701 12.1785Z" fill="#FFF500"/>
</svg>
